!!!COM: des Prez, Josquin
!!!CDT: ~1450-1521/08/27
!!!OPR: Missa Faisant regretz
!!!ONM: 3
!!!OTL: Credo
!!!AGN: Mass; Credo
!!!SCT: NJE 8.1
!!!SCA: New Josquin Edition 8.1
!!!voices: 4
**kern	**text	**kern	**text	**kern	**text	**kern	**text
*staff4	*staff4	*staff3	*staff3	*staff2	*staff2	*staff1	*staff1
*Ivox	*	*Ivox	*	*Ivox	*	*Ivox	*
*I"Bassus	*	*I"Tenor	*	*I"Altus	*	*I"Superius	*
*I'B	*	*I'T	*	*I'A	*	*I'S	*
*>[A,B,C]	*>[A,B,C]	*>[A,B,C]	*>[A,B,C]	*>[A,B,C]	*>[A,B,C]	*>[A,B,C]	*>[A,B,C]
*>A	*>A	*>A	*>A	*>A	*>A	*>A	*>A
*clefF4	*	*clefGv2	*	*clefGv2	*	*clefG2	*
*k[b-]	*	*k[b-]	*	*k[b-]	*	*k[b-]	*
*M3/1	*	*M3/1	*	*M3/1	*	*M3/1	*
*met(O)	*	*met(O)	*	*met(O)	*	*met(O)	*
!!section: Patrem
!!!OMD: Patrem
=1-	=1-	=1-	=1-	=1-	=1-	=1-	=1-
1B-	Pa-	0.r	.	0.r	.	0.r	.
1G	-trem	.	.	.	.	.	.
1A	om-	.	.	.	.	.	.
=2	=2	=2	=2	=2	=2	=2	=2
2G\	-ni-	1B-	Pa-	0.r	.	0.r	.
2.B-\	.	.	.	.	.	.	.
.	.	1G	-trem	.	.	.	.
4A\	.	.	.	.	.	.	.
2G\	.	.	.	.	.	.	.
2F\	.	1A	om-	.	.	.	.
2D\	.	.	.	.	.	.	.
=3	=3	=3	=3	=3	=3	=3	=3
2E-i\	.	2G/	-ni-	0.r	.	1r	.
2D\	.	1B-	.	.	.	.	.
4E-i\	.	.	.	.	.	1r	.
4D\	.	.	.	.	.	.	.
1G	.	2G/	-po-	.	.	.	.
.	.	1A	-ten-	.	.	1a	Pa-
2F#i\	-po-	.	.	.	.	.	.
=4	=4	=4	=4	=4	=4	=4	=4
2G\	-ten-	1G	-tem,	0d	Pa-	1b-	.
2GG/	.	.	.	.	.	.	.
1D	-tem,	1r	.	.	.	2a/	-trem
.	.	.	.	.	.	2f/	om-
1C	.	1r	.	1e-	.	2.g/	-ni-
.	.	.	.	.	.	4a/	-po-
=5	=5	=5	=5	=5	=5	=5	=5
2r	.	1B-	fac-	1d	-trem	4b-\	-ten-
.	.	.	.	.	.	4a/	.
2BB-/	fac-	.	.	.	.	2.b-\	.
1E-	-to-	1G	-to-	2B-\	om-	.	.
.	.	.	.	.	.	4a/	.
.	.	.	.	2c\	.	1g	.
1D	-rem	1A	-rem	1d	-ni-	.	.
.	.	.	.	.	.	2f#i/	.
=6	=6	=6	=6	=6	=6	=6	=6
2E-i\	ce-	1G	ce-	2B-\	-po-	0g	-tem,
2C/	.	.	.	2c\	.	.	.
1G	-li	2B-\	-li	1d	-ten-	.	.
.	.	2G/	et	.	.	.	.
1r	.	1A	ter-	1c	-tem,	2e/	fac-
.	.	.	.	.	.	2f/	.
=7	=7	=7	=7	=7	=7	=7	=7
2r	.	1G	-re,	2r	.	1g	-to-
2.G\	et	.	.	1B-	fac-	.	.
.	.	1r	.	.	.	1g	-rem
4F\	.	.	.	.	.	.	.
2E-i\	.	.	.	2G/	-to-	.	.
2D\	ter-	1r	.	2A/	-rem	2f/	ce-
2GG/	.	.	.	2G/	ce-	2g/	-li
=8	=8	=8	=8	=8	=8	=8	=8
2D\	.	1r	.	2B-\	-li	2f/	et
2E-i\	.	.	.	2G/	et	1g	ter-
1D	-re,	1r	.	1A	ter-	.	.
.	.	.	.	.	.	2f#i/	.
1r	.	1B-	vi-	1G	-re,	1g	-re,
=9	=9	=9	=9	=9	=9	=9	=9
0.r	.	1G	-si-	2r	.	1r	.
.	.	.	.	2B-\	vi-	.	.
.	.	1A	-bi-	2c\	-si-	2e/	vi-
.	.	.	.	2c\	-bi-	2f/	-si-
.	.	2G/	-li-	2d\	-li-	2g/	-bi-
.	.	[2c\	-um	2e\	-um	2g/	-li-
=10	=10	=10	=10	=10	=10	=10	=10
0.r	.	2c\]	.	2A/	om-	1a	-um
.	.	2A/	om-	2.f\	.	.	.
.	.	1B-	-ni-	.	.	1d	om-
.	.	.	.	4e\	.	.	.
.	.	.	.	1d	.	.	.
.	.	1A	-um	.	.	1e	-ni-
.	.	.	.	2c#i\	-ni-	.	.
=11	=11	=11	=11	=11	=11	=11	=11
2.D\	et	2r	.	2d\	-um	1d	-um
.	.	1d	et	2.f\	et	.	.
4E\	.	.	.	.	.	.	.
2F\	.	.	.	.	.	1r	.
.	.	.	.	4e\	.	.	.
2G\	in-	2B-\	in-	2d\	.	.	.
2A\	-vi-	1c	-vi-	2c\	.	1a	et
2F\	.	.	.	2f\	in-	.	.
=12	=12	=12	=12	=12	=12	=12	=12
2G\	.	2B-\	-si-	2d\	-vi-	2.b-\	.
2E-i\	.	1e-	-bi-	1g	.	.	.
.	.	.	.	.	.	4g/	.
2G\	.	.	.	.	.	2b-\	in-
2A\	.	2c\	.	2e\	-si-	1a	-vi-
1D	.	1d	.	2.f\	-bi-	.	.
.	.	.	.	.	.	2f/	-si-
.	.	.	.	4d\	.	.	.
=13	=13	=13	=13	=13	=13	=13	=13
2r	.	2c\	.	2e-i\	.	2g/	-bi-
2D\	-si-	2f\	.	2.d\	.	2.a/	.
2G\	-bi-	2d\	.	.	.	.	.
.	.	.	.	4B-\	.	4g/	.
2C/	.	2e\	-li-	2c\	.	1g	.
1D	-li-	1d	-um.	1A	-li-	.	.
.	.	.	.	.	.	2f#i/	-li-
=14	=14	=14	=14	=14	=14	=14	=14
1GG	-um.	2r	.	1G	-um.	1g	-um.
.	.	2B-\	Et	.	.	.	.
1r	.	2G/	in	1r	.	2r	.
.	.	1A	u-	.	.	2e/	Et
1r	.	.	.	1r	.	2f/	in
.	.	2G/	-num	.	.	[2g/	u-
=15	=15	=15	=15	=15	=15	=15	=15
0.r	.	1.c	do-	0.r	.	2g/]	.
.	.	.	.	.	.	2a/	-num
.	.	.	.	.	.	2g/	do-
.	.	2A/	-mi-	.	.	2a/	-mi-
.	.	2B-\	-num	.	.	2g/	-num
.	.	2A/	Je-	.	.	2a/	Je-
=16	=16	=16	=16	=16	=16	=16	=16
0.r	.	2c\	-sum	1r	.	2g/	-sum
.	.	2A/	.	.	.	1a	Chris-
.	.	1B-	Chris-	1r	.	.	.
.	.	.	.	.	.	2g/	.
.	.	1A	-tum,	2r	.	1a	-tum,
.	.	.	.	[2F/	fi-	.	.
=17	=17	=17	=17	=17	=17	=17	=17
1r	.	1f	fi-	2F/]	.	1a	fi-
.	.	.	.	2F/	-li-	.	.
2r	.	2d\	-li-	2.G/	-um	1b-	.
1G	fi-	1e	-um	.	.	.	.
.	.	.	.	4A/	.	.	.
.	.	.	.	2B-\	.	2b-\	-li-
2G\	-li-	2d\	de-	2G/	.	2b-\	-um
=18	=18	=18	=18	=18	=18	=18	=18
2F\	-um	2f\	.	2A/	de-	2a/	de-
2G\	de-	2d\	-i	2B-\	.	2.g/	-i
2C/	-i	2e\	u-	2c\	-i	.	.
.	.	.	.	.	.	4e/	.
2.D\	u-	2d\	-ni-	2.F/	u-	4f/	.
.	.	.	.	.	.	4g/	.
.	.	2f\	-ge-	.	.	1a	u-
4E\	.	.	.	4G/	.	.	.
4F\	-ni-	2d\	.	4A/	-ni-	.	.
4G\	.	.	.	4B-\	.	.	.
=19	=19	=19	=19	=19	=19	=19	=19
2E\	-ge-	1e	-ni-	3c\V	-ge-	2g/	-ni-
.	.	.	.	3G/	.	.	.
2C/	.	.	.	.	.	1g	-ge-
.	.	.	.	3c\Z	.	.	.
1D	-ni-	0d	-tum.	3B-\V	.	.	.
.	.	.	.	3%2AZ	-ni-	.	.
.	.	.	.	.	.	2f#i/	-ni-
1GG	-tum.	.	.	1G	-tum.	1g	-tum.
=20	=20	=20	=20	=20	=20	=20	=20
*M2/1	*	*M2/1	*	*M2/1	*	*M2/1	*
*met(C|)	*	*met(C|)	*	*met(C|)	*	*met(C|)	*
0r	.	0r	.	1A	Et	2e/	Et
.	.	.	.	.	.	2f/	ex
.	.	.	.	2B-\	ex	1g	pa-
.	.	.	.	[2c\	pa-	.	.
=21	=21	=21	=21	=21	=21	=21	=21
0r	.	0r	.	2c\]	.	2e/	-tre
.	.	.	.	2A/	-tre	2f/	.
.	.	.	.	2B-\	.	1g	na-
.	.	.	.	[2c\	na-	.	.
=22	=22	=22	=22	=22	=22	=22	=22
1r	.	1r	.	4c\]	.	1a	-tum
.	.	.	.	4B-\	.	.	.
.	.	.	.	2c\	.	.	.
1D	an-	2r	.	2d\	-tum	2r	.
.	.	2f\	an-	2F/	an-	2a/	an-
=23	=23	=23	=23	=23	=23	=23	=23
2BB-/	-te	2d\	-te	2G/	-te	2b-\	-te
2C/	om-	2e\	om-	2G/	om-	2g/	om-
1D	-ni-	2d\	-ni-	4F/	-ni-	2b-\	-ni-
.	.	.	.	4D/	.	.	.
.	.	2f\	-a	[2d\	-a	[2a/	-a
=24	=24	=24	=24	=24	=24	=24	=24
2BB-/	-a	2d\	se-	2d\]	.	4a/]	.
.	.	.	.	.	.	4g/	.
2C/	se-	2e\	-cu-	4c\	se-	1g	se-
.	.	.	.	4B-\	.	.	.
1D	-cu-	[1d	-la.	1A	-cu-	.	.
.	.	.	.	.	.	2f#i/	-cu-
=25	=25	=25	=25	=25	=25	=25	=25
1GG	-la.	1d]	.	1G	-la.	1g	-la.
2r	.	2r	.	[1d	De-	2r	.
2D\	De-	2f\	De-	.	.	2a/	De-
=26	=26	=26	=26	=26	=26	=26	=26
2BB-/	-um	2d\	-um	2d\]	.	2b-\	-um
2C/	de	2e-i\	de	2c\	-um	1g	de
1D	de-	1d	de-	2B-\	de	.	.
.	.	.	.	2A/	de-	2f#i/	de-
=27	=27	=27	=27	=27	=27	=27	=27
1GG	-o,	2B-\	-o,	2G/	-o,	1g	-o,
.	.	2G/	lu-	2B-\	lu-	.	.
2r	.	2A/	-men	2c\	-men	2r	.
2G\	lu-	2G/	de	2d\	de	2b-\	lu-
=28	=28	=28	=28	=28	=28	=28	=28
2.G\	-men	2B-\	lu-	1B-	lu-	2g/	-men
.	.	2G/	-mi-	.	.	2b-\	de
4G\	de	.	.	.	.	.	.
2F\	lu-	2A/	-ne,	1c	-mi-	4a/	lu-
.	.	.	.	.	.	4f/	.
2E\	-mi-	2G/	de-	.	.	2g/	-mi-
=29	=29	=29	=29	=29	=29	=29	=29
2D\	-ne,	2B-\	-um	2d\	-ne,	2f/	-ne,
2G\	de-	2G/	ve-	2B-\	de-	2b-\	de-
2F\	-um	2A/	-rum	2c\	-um	4a/	-um
.	.	.	.	.	.	4f/	.
2E\	ve-	2G/	de	2c\	ve-	2g/	ve-
=30	=30	=30	=30	=30	=30	=30	=30
2D\	-rum	1B-	de-	1d	-rum	2f/	-rum
2.G\	de	.	.	.	.	2.b-\	de
.	.	1G	-o	2B-\	de	.	.
4F\	.	.	.	.	.	4a/	.
2E\	de-	.	.	2c\	de-	2g/	de-
=31	=31	=31	=31	=31	=31	=31	=31
2D\	-o	0A	ve-	2d\	-o	2f/	-o
2C/	.	.	.	2e-i\	.	1g	ve-
1D	ve-	.	.	1d	ve-	.	.
.	.	.	.	.	.	2f#i/	.
=32	=32	=32	=32	=32	=32	=32	=32
0GG	-ro.	0G	-ro.	1B-	-ro.	0g	-ro.
.	.	.	.	2r	.	.	.
.	.	.	.	2B-\	Ge-	.	.
=33	=33	=33	=33	=33	=33	=33	=33
2E\	Ge-	0r	.	2c\	-ni-	0r	.
2F\	-ni-	.	.	2d\	-tum,	.	.
2G\	-tum,	.	.	2B-\	non	.	.
2E\	non	.	.	2c\	fac-	.	.
=34	=34	=34	=34	=34	=34	=34	=34
2F\	fac-	0r	.	2d\	-tum,	0r	.
2G\	-tum,	.	.	2B-\	con-	.	.
2E\	con-	.	.	2c\	-sub-	.	.
2F\	-sub-	.	.	2d\	-stan-	.	.
=35	=35	=35	=35	=35	=35	=35	=35
2G\	-stan-	0r	.	2B-\	-ti-	0r	.
2E\	-ti-	.	.	2c\	-a-	.	.
2F\	-a-	.	.	2.d\	-lem	.	.
[2D\	-lem	.	.	.	.	.	.
.	.	.	.	4c\	.	.	.
=36	=36	=36	=36	=36	=36	=36	=36
2D\]	.	0r	.	4B-\	.	0r	.
.	.	.	.	4A/	.	.	.
2C/	pa-	.	.	1A	pa-	.	.
1BB-	.	.	.	.	.	.	.
.	.	.	.	2G/	.	.	.
=37	=37	=37	=37	=37	=37	=37	=37
2AA/	-tri,	2r	.	2A/	-tri,	2r	.
2D\	per	2f\	per	2F/	per	2a/	per
2BB-/	quem	2d\	quem	2G/	quem	2b-\	quem
2C/	om-	2e\	om-	2E/	om-	2g/	om-
=38	=38	=38	=38	=38	=38	=38	=38
1D	-ni-	2d\	-ni-	4F/	-ni-	2b-\	-ni-
.	.	.	.	4D/	.	.	.
.	.	2f\	-a	1d	-a	2.a/	-a
2BB-/	-a	2d\	fac-	.	.	.	.
.	.	.	.	.	.	4g/	.
2C/	fac-	2e\	-ta	4c\	fac-	[2g/	fac-
.	.	.	.	4B-\	.	.	.
=39	=39	=39	=39	=39	=39	=39	=39
1D	-ta	1d	sunt.	1A	-ta	2g/]	.
.	.	.	.	.	.	2f#i/	-ta
1GG	sunt.	2r	.	1G	sunt.	1g	sunt.
.	.	2B-\	Qui	.	.	.	.
=40	=40	=40	=40	=40	=40	=40	=40
0r	.	2G/	prop-	2r	.	2r	.
.	.	1A	-ter	1c	Qui	2e/	Qui
.	.	.	.	.	.	2f/	prop-
.	.	2G/	nos	2d\	prop-	[2g/	-ter
=41	=41	=41	=41	=41	=41	=41	=41
0r	.	2c\	ho-	2e\	-ter	4g/]	.
.	.	.	.	.	.	4e/	nos
.	.	2A/	-mi-	2c\	nos	2f/	ho-
.	.	2B-\	-nes,	2d\	ho-	2g/	-mi-
.	.	2A/	et	2e\	-mi-	[2a/	-nes,
=42	=42	=42	=42	=42	=42	=42	=42
0r	.	2d\	prop-	2f\	-nes,	4a/]	.
.	.	.	.	.	.	4f/	et
.	.	2B-\	-ter	2d\	et	2g/	prop-
.	.	2c\	nos-	2e\	prop-	2a/	-ter
.	.	2B-\	-tram	2f\	-ter	[2b-\	nos-
=43	=43	=43	=43	=43	=43	=43	=43
0r	.	2e-\	sa-	2g\	nos-	4b-\]	.
.	.	.	.	.	.	4g/	-tram
.	.	2c\	-lu-	2e\	-tram	2a/	sa-
.	.	2d\	-tem,	2f\	sa-	2b-\	-lu-
.	.	2c\	de-	2g\	-lu-	2cc\	-tem,
=44	=44	=44	=44	=44	=44	=44	=44
2r	.	2.f\	-scen-	2a\	-tem,	2a/	de-
2BB-/	de-	.	.	2d\	de-	2dd\	-scen-
.	.	4d\	.	.	.	.	.
2C/	-scen-	2e-i\	-dit	2g\	-scen-	2cc\	-dit
2D\	-dit	2d\	de	2f\	-dit	4b-\	de
.	.	.	.	.	.	[4a/	ce-
=45	=45	=45	=45	=45	=45	=45	=45
1E-	de	2B-\	ce-	3.e-\V	de	4a/]	.
.	.	.	.	.	.	4g/	.
.	.	2G/	.	6B-\	.	1g	.
.	.	.	.	3c\Z	.	.	.
1D	ce-	1A	.	3.d\V	ce-	.	.
.	.	.	.	6c\	.	2f#i/	.
.	.	.	.	3A/Z	.	.	.
=46	=46	=46	=46	=46	=46	=46	=46
0GGl	-lis.	0Gl	-lis.	0B-l	-lis.	0gl	-lis.
!!LO:LB:i:g=z
=47||	=47||	=47||	=47||	=47||	=47||	=47||	=47||
*>B	*>B	*>B	*>B	*>B	*>B	*>B	*>B
*clefF4	*	*clefGv2	*	*clefGv2	*	*clefG2	*
*k[b-]	*	*k[b-]	*	*k[b-]	*	*k[b-]	*
*M2/1	*	*M2/1	*	*M2/1	*	*M2/1	*
*met(C|)	*	*met(C|)	*	*met(C|)	*	*met(C|)	*
!!section: Et incarnatus est
!!!OMD: Et incarnatus est
0r	.	0r	.	2.d\	Et	1r	.
.	.	.	.	4e\	.	.	.
.	.	.	.	2f\	in-	2.a/	Et
.	.	.	.	2f\	-car-	.	.
.	.	.	.	.	.	4b-\	.
=48	=48	=48	=48	=48	=48	=48	=48
0r	.	0r	.	2f\	-na-	2cc\	in-
.	.	.	.	2f\	-tus	2cc\	-car-
.	.	.	.	[1f	est	2cc\	-na-
.	.	.	.	.	.	2cc\	-tus
=49	=49	=49	=49	=49	=49	=49	=49
0r	.	0r	.	2f\]	.	1.cc	est
.	.	.	.	4e\	.	.	.
.	.	.	.	4d\	.	.	.
.	.	.	.	1c	.	.	.
.	.	.	.	.	.	4b-\	.
.	.	.	.	.	.	4a/	.
=50	=50	=50	=50	=50	=50	=50	=50
0r	.	0r	.	2r	.	1g	.
.	.	.	.	2g\	de	.	.
.	.	.	.	2g\	spi-	2r	.
.	.	.	.	2f\	-ri-	2dd\	de
=51	=51	=51	=51	=51	=51	=51	=51
0r	.	0r	.	2g\	-tu	2dd\	spi-
.	.	.	.	2e\	sanc-	2cc\	-ri-
.	.	.	.	1d	-to	2dd\	-tu
.	.	.	.	.	.	2b-\	sanc-
=52	=52	=52	=52	=52	=52	=52	=52
0r	.	0r	.	2r	.	1a	-to
.	.	.	.	2d\	ex	.	.
.	.	.	.	2e-i\	Ma-	2r	.
.	.	.	.	2d\	-ri-	2a/	ex
=53	=53	=53	=53	=53	=53	=53	=53
0r	.	0r	.	2B-\	-a	2b-\	Ma-
.	.	.	.	2c\	vir-	2a/	-ri-
.	.	.	.	2d\	.	2f/	-a
.	.	.	.	[2G/	.	[2g/	vir-
=54	=54	=54	=54	=54	=54	=54	=54
0r	.	0r	.	2G/]	.	4g/]	.
.	.	.	.	.	.	4f/	.
.	.	.	.	1d	.	2d/	.
.	.	.	.	.	.	1e	-gi-
.	.	.	.	2c#i\	-gi-	.	.
=55	=55	=55	=55	=55	=55	=55	=55
1r	.	1r	.	0d	-ne:	1d	-ne:
1D	Et	1f	Et	.	.	1a	Et
=56	=56	=56	=56	=56	=56	=56	=56
1.G	ho-	1d	ho-	1B-	Et	0b-	ho-
.	.	2e\	-mo	1G	ho-	.	.
2G\	-mo	2d\	.	.	.	.	.
=57	=57	=57	=57	=57	=57	=57	=57
1F	fac-	2f\	fac-	1A	-mo	1a	-mo
.	.	2d\	.	.	.	.	.
1G	-tus	1e	-tus	[1B-	fac-	[1g	fac-
=58	=58	=58	=58	=58	=58	=58	=58
0D	est.	0d	est.	2B-\]	.	2g/]	.
.	.	.	.	4A/	.	4f#i/	.
.	.	.	.	4G/	.	4e/	.
.	.	.	.	1A	-tus	1f#i	-tus
=59	=59	=59	=59	=59	=59	=59	=59
2r	.	0r	.	2G/	est.	1g	est.
2E\	Cru-	.	.	2r	.	.	.
2F\	-ci-	.	.	2A/	Cru-	1r	.
2G\	-fi-	.	.	2B-\	-ci-	.	.
=60	=60	=60	=60	=60	=60	=60	=60
2E\	-xus	0r	.	2c\	-fi-	0r	.
2F\	e-	.	.	2A/	-xus	.	.
2D\	-ti-	.	.	2B-\	e-	.	.
2E\	-am	.	.	2G/	-ti-	.	.
=61	=61	=61	=61	=61	=61	=61	=61
4F\	pro	0r	.	2A/	-am	0r	.
4E\	.	.	.	.	.	.	.
2.A\	no-	.	.	2c\	pro	.	.
.	.	.	.	1B-	no-	.	.
4G\	.	.	.	.	.	.	.
4G\	.	.	.	.	.	.	.
4F\	.	.	.	.	.	.	.
=62	=62	=62	=62	=62	=62	=62	=62
2A\	-bis;	0r	.	1A	-bis;	2r	.
2D\	sub	.	.	.	.	2f/	sub
2E-i\	Pon-	.	.	2r	.	2g/	Pon-
2D\	-ti-	.	.	2A/	sub	2f/	-ti-
=63	=63	=63	=63	=63	=63	=63	=63
2BB-/	-o	0r	.	2B-\	Pon-	2g/	-o
2C/	Pi-	.	.	2A/	-ti-	2.a/	Pi-
[1D	-la-	.	.	2F/	-o	.	.
.	.	.	.	.	.	4b-\	.
.	.	.	.	2G/	Pi-	[2g/	-la-
=64	=64	=64	=64	=64	=64	=64	=64
1D]	.	1r	.	1A	-la-	2g/]	.
.	.	.	.	.	.	2f#i/	.
1GG	-to	[1B-	pas-	1G	-to	1g	-to
=65	=65	=65	=65	=65	=65	=65	=65
1G	pas-	2B-\]	.	2r	.	1b-	pas-
.	.	2G/	-sus	1d	pas-	.	.
2F\	-sus	2A/	et	.	.	2a/	-sus
[2G\	et	2G/	se-	2d\	-sus	[2b-\	et
=66	=66	=66	=66	=66	=66	=66	=66
2G\]	.	1.B-	-pul-	2d\	et	4b-\]	.
.	.	.	.	.	.	4a/	.
2D\	se-	.	.	2d\	se-	2f/	.
1E-i	-pul-	.	.	2B-\	-pul-	2g/	se-
.	.	2G/	.	2c\	-tus	[2g/	-pul-
=67	=67	=67	=67	=67	=67	=67	=67
1D	-tus	1A	-tus	1d	est.	2g/]	.
.	.	.	.	.	.	2f#i/	-tus
1GG	est.	1G	est.	2r	.	2g/	est.
.	.	.	.	2d\	Et	2r	.
=68	=68	=68	=68	=68	=68	=68	=68
0r	.	0r	.	2e\	re-	2g/	Et
.	.	.	.	2f\	-sur-	2a/	re-
.	.	.	.	2g\	-re-	2b-\	-sur-
.	.	.	.	2e\	-xit	2cc\	-re-
=69	=69	=69	=69	=69	=69	=69	=69
0r	.	0r	.	2f\	ter-	2a/	-xit
.	.	.	.	2d\	-ti-	2b-\	ter-
.	.	.	.	1f	-a	2a/	-ti-
.	.	.	.	.	.	[2dd\	-a
=70	=70	=70	=70	=70	=70	=70	=70
1r	.	1r	.	1e	di-	4dd\]	.
.	.	.	.	.	.	4b-\	.
.	.	.	.	.	.	2cc\	di-
1D	se-	2r	.	[1d	-e	2dd\	-e
.	.	2f\	se-	.	.	2a/	se-
=71	=71	=71	=71	=71	=71	=71	=71
2BB-/	-cun-	2d\	-cun-	2d\]	.	2b-\	-cun-
2C/	-dum	2e\	-dum	2c\	se-	2g/	-dum
1D	scrip-	1d	scrip-	2B-\	-cun-	2b-\	scrip-
.	.	.	.	2F/	-dum	[2a/	-tu-
=72	=72	=72	=72	=72	=72	=72	=72
1E-i	-tu-	2B-\	-tu-	4G/	scrip-	4a/]	.
.	.	.	.	4A/	.	4g/	.
.	.	2G/	.	4B-\	.	1g	.
.	.	.	.	4c\	.	.	.
1D	-ras.	1A	.	1d	-tu-	.	.
.	.	.	.	.	.	2f#i/	.
=73	=73	=73	=73	=73	=73	=73	=73
0r	.	1G	-ras.	2B-\	-ras.	1g	-ras.
.	.	.	.	2G/	Et	.	.
.	.	1r	.	2A/	a-	2r	.
.	.	.	.	2B-\	-scen-	2d/	Et
=74	=74	=74	=74	=74	=74	=74	=74
0r	.	0r	.	2c\	-dit	2e/	a-
.	.	.	.	2d\	in	2f/	-scen-
.	.	.	.	2B-\	ce-	2g/	-dit
.	.	.	.	2G/	.	[2b-\	in
=75	=75	=75	=75	=75	=75	=75	=75
0r	.	0r	.	2.d\	.	4b-\]	.
.	.	.	.	.	.	4a/	.
.	.	.	.	.	.	1a	ce-
.	.	.	.	4c\	.	.	.
.	.	.	.	1B-	.	.	.
.	.	.	.	.	.	2g/	.
=76	=76	=76	=76	=76	=76	=76	=76
1r	.	1r	.	1A	-lum;	1a	-lum;
2r	.	2r	.	2r	.	2r	.
2D\	se-	2f\	se-	2d\	se-	2a/	se-
=77	=77	=77	=77	=77	=77	=77	=77
2G\	-det	2d\	-det	2B-\	-det	2b-\	-det
2C/	ad	2e\	ad	2c\	ad	2g/	ad
2G\	dex-	2d\	dex-	2B-\	dex-	2b-\	dex-
2F\	-te-	2f\	-te-	2c\	-te-	[2a/	-te-
=78	=78	=78	=78	=78	=78	=78	=78
2G\	-ram	2d\	-ram	2B-\	-ram	4a/]	.
.	.	.	.	.	.	4g/	.
2C/	.	2e\	pa-	2c\	.	1g	-ram
1D	pa-	[1d	-tris.	1A	pa-	.	.
.	.	.	.	.	.	2f#i/	pa-
=79	=79	=79	=79	=79	=79	=79	=79
1GG	-tris.	1d]	.	1G	-tris.	1g	-tris.
2r	.	2r	.	2r	.	2r	.
2GG/	Et	2B-\	Et	2G/	Et	2d/	Et
=80	=80	=80	=80	=80	=80	=80	=80
2.C/	i-	2G/	i-	2.E/	i-	2.e/	i-
.	.	2A/	-te-	.	.	.	.
4C/	-te-	.	.	4F/	-te-	4e/	-te-
2C/	-rum	2G/	-rum	2G/	-rum	2e/	-rum
2AA/	ven-	2c\	ven-	2A/	ven-	2e/	ven-
=81	=81	=81	=81	=81	=81	=81	=81
2.D\	-tu-	2A/	-tu-	2.F/	-tu-	2.f/	-tu-
.	.	2B-\	-rus	.	.	.	.
4D\	-rus	.	.	4F/	-rus	4f/	-rus
2D\	est	2A/	est	2F/	est	2f/	est
2GG/	cum	2B-\	cum	2G/	cum	2d/	cum
=82	=82	=82	=82	=82	=82	=82	=82
2.C/	glo-	2G/	glo-	2.E/	glo-	2.e/	glo-
.	.	2A/	-ri-	.	.	.	.
4C/	-ri-	.	.	4F/	-ri-	4e/	-ri-
2C/	-a	2G/	-a	2G/	-a	2e/	-a
2AA/	ju-	2c\	ju-	2A/	ju-	2e/	ju-
=83	=83	=83	=83	=83	=83	=83	=83
2D\	-di-	2A/	-di-	2F/	-di-	2f/	-di-
2GG/	-ca-	2B-\	-ca-	2G/	-ca-	2d/	-ca-
2D\	-re	2A/	-re	2F/	-re	2f/	-re
2BB-/	vi-	2B-\	vi-	2G/	vi-	2d/	vi-
=84	=84	=84	=84	=84	=84	=84	=84
2C/	-vos	2G/	-vos	2E/	-vos	2e/	-vos
2AA/	et	2A/	et	2c\	et	2c/	et
2BB-/	mor-	2G/	mor-	4B-\	mor-	2d/	mor-
.	.	.	.	4A/	.	.	.
2C/	-tu-	2c\	-tu-	2G/	-tu-	2e/	-tu-
=85	=85	=85	=85	=85	=85	=85	=85
1D	-os;	2A/	-os;	2F/	-os;	1f	-os;
.	.	2B-\	cu-	2r	.	.	.
2r	.	2A/	-jus	2F/	cu-	2r	.
2GG/	cu-	2B-\	.	2G/	-jus	2d/	cu-
=86	=86	=86	=86	=86	=86	=86	=86
2C/	-jus	2G/	re-	2E/	re-	2e/	-jus
2AA/	re-	1A	-gni	1F	-gni	2c/	re-
2D\	-gni	.	.	.	.	2f/	-gni
2GG/	non	2G/	non	2B-\	non	2g/	non
=87	=87	=87	=87	=87	=87	=87	=87
1D	e-	2F/	e-	2A/	e-	2a/	e-
.	.	2D/	-rit	2B-\	.	2f/	.
1C	-rit	1E	fi-	1c	-rit	1g	-rit
=88	=88	=88	=88	=88	=88	=88	=88
1.D	fi-	[0Dl	-nis.	1.F	fi-	2f/	fi-
.	.	.	.	.	.	1d	.
2GG/	.	.	.	2G/	.	2B-/	.
=89	=89	=89	=89	=89	=89	=89	=89
0GGl	-nis.	0D]	.	0Gl	-nis.	0B-l	-nis.
!!LO:LB:i:g=z
=90||	=90||	=90||	=90||	=90||	=90||	=90||	=90||
*>C	*>C	*>C	*>C	*>C	*>C	*>C	*>C
*clefF4	*	*clefGv2	*	*clefGv2	*	*clefG2	*
*k[b-]	*	*k[b-]	*	*k[b-]	*	*k[b-]	*
*M2/1	*	*M2/1	*	*M2/1	*	*M2/1	*
*met(C|)	*	*met(C|)	*	*met(C|)	*	*met(C|)	*
!!section: Et in spiritum
!!!OMD: Et in spiritum
1.G	Et	0r	.	0r	.	0r	.
2G\	in	.	.	.	.	.	.
=91	=91	=91	=91	=91	=91	=91	=91
2F\	spi-	0r	.	1.d	Et	0r	.
2G\	-ri-	.	.	.	.	.	.
1D	-tum	.	.	.	.	.	.
.	.	.	.	2d\	in	.	.
=92	=92	=92	=92	=92	=92	=92	=92
2r	.	0r	.	2c\	spi-	0r	.
1F	sanc-	.	.	2d\	-ri-	.	.
.	.	.	.	1A	-tum	.	.
2F\	-tum,	.	.	.	.	.	.
=93	=93	=93	=93	=93	=93	=93	=93
2E\	do-	0r	.	2r	.	0r	.
2F\	-mi-	.	.	1c	sanc-	.	.
4C/	-num,	.	.	.	.	.	.
4D\	.	.	.	.	.	.	.
4E\	.	.	.	2c\	-tum,	.	.
4F\	.	.	.	.	.	.	.
=94	=94	=94	=94	=94	=94	=94	=94
2G\	.	0r	.	2B-\	do-	0r	.
2C/	et	.	.	2c\	-mi-	.	.
2E-\	vi-	.	.	4G/	-num,	.	.
.	.	.	.	4A/	.	.	.
2D\	-vi-	.	.	4B-\	.	.	.
.	.	.	.	4c\	.	.	.
=95	=95	=95	=95	=95	=95	=95	=95
2BB-/	-fi-	0r	.	2d\	.	0r	.
2C/	-can-	.	.	2G/	et	.	.
2GG/	.	.	.	2B-\	vi-	.	.
[2D\	.	.	.	2A/	-vi-	.	.
=96	=96	=96	=96	=96	=96	=96	=96
2D\]	.	0r	.	2F/	-fi-	0r	.
2BB-/	.	.	.	2.G/	-can-	.	.
1AA	.	.	.	.	.	.	.
.	.	.	.	4F#i/	.	.	.
.	.	.	.	4F#i/	.	.	.
.	.	.	.	4E/	.	.	.
=97	=97	=97	=97	=97	=97	=97	=97
1GG	-tem;	2r	.	1G	-tem;	2r	.
.	.	2B-\	qui	.	.	2d/	qui
1r	.	2G/	ex	2B-\	qui	2e/	ex
.	.	2A/	pa-	2c\	ex	2f/	pa-
=98	=98	=98	=98	=98	=98	=98	=98
0r	.	2G/	-tre	2d\	pa-	2g/	-tre
.	.	1B-	fi-	2d\	-tre	2g/	fi-
.	.	.	.	2d\	fi-	2g/	-li-
.	.	2G/	-li-	2d\	-li-	2g/	-o-
=99	=99	=99	=99	=99	=99	=99	=99
0r	.	2A/	-o-	2c\	-o-	2f/	-que-
.	.	2G/	-que-	1d	-que-	2g/	-pro-
.	.	2B-\	-pro-	.	.	2f/	-ce-
.	.	2G/	.	2B-\	-pro-	[2g/	.
=100	=100	=100	=100	=100	=100	=100	=100
2r	.	1A	-ce-	2c\	-ce-	4g/]	.
.	.	.	.	.	.	4f#i/	.
2D\	Qui	.	.	1d	.	4f#i/	.
.	.	.	.	.	.	4e/	.
2BB-/	cum	1G	-dit.	.	.	1g	-dit.
2C/	pa-	.	.	4c\	.	.	.
.	.	.	.	4B-\	.	.	.
=101	=101	=101	=101	=101	=101	=101	=101
1D	-tre	2r	.	2A/	-dit.	2r	.
.	.	2f\	Qui	2d\	Qui	2a/	Qui
1r	.	2d\	cum	2B-\	cum	2b-\	cum
.	.	2e\	pa-	2c\	pa-	2g/	pa-
=102	=102	=102	=102	=102	=102	=102	=102
2r	.	2d\	-tre	1d	-tre	2b-\	-tre
2D\	et	2f\	et	.	.	2a/	et
2BB-/	fi-	2d\	fi-	1r	.	2b-\	fi-
2C/	-li-	2e\	-li-	.	.	2g/	-li-
=103	=103	=103	=103	=103	=103	=103	=103
2D\	-o	2d\	-o	2r	.	2f/	-o
2D\	si-	2f\	si-	2A/	si-	2f/	si-
2D\	-mul	2d\	-mul	2B-\	-mul	2f/	-mul
2C/	ad-	2e\	ad-	2c\	ad-	2e/	ad-
=104	=104	=104	=104	=104	=104	=104	=104
1D	-o-	2d\	-o-	3.F/V	-o-	1f	-o-
.	.	1f	-ra-	6G/	.	.	.
.	.	.	.	3A/Z	.	.	.
1BB-	-ra-	.	.	3B-\V	-ra-	1d	-ra-
.	.	.	.	3F/	.	.	.
.	.	2d\	.	.	.	.	.
.	.	.	.	3G/Z	.	.	.
=105	=105	=105	=105	=105	=105	=105	=105
1AA	-tur	1e	-tur	1A	-tur	1c	-tur
2D\	et	2d\	et	2r	.	2f/	et
2D\	con-	2f\	con-	2A/	et	2f/	con-
=106	=106	=106	=106	=106	=106	=106	=106
2D\	-glo-	2d\	-glo-	2B-\	con-	2f/	-glo-
2C/	-ri-	2e\	-ri-	2c\	-glo-	2e/	-ri-
1D	-fi-	2d\	-fi-	3.F/V	-ri-	2.f/	-fi-
.	.	[2f\	-ca-	6G/	-fi-	.	.
.	.	.	.	3A/Z	.	.	.
.	.	.	.	.	.	4d/	.
=107	=107	=107	=107	=107	=107	=107	=107
1BB-	-ca-	2f\]	.	3B-\V	-ca-	1dd	-ca-
.	.	.	.	3F/	.	.	.
.	.	2d\	.	.	.	.	.
.	.	.	.	3G/Z	.	.	.
1AA	-tur;	1e	-tur;	1A	-tur;	1cc	-tur;
=108	=108	=108	=108	=108	=108	=108	=108
2r	.	2d\	qui	2r	.	2r	.
1D	qui	1f	.	1F	qui	1a	qui
2BB-/	lo-	2d\	lo-	2G/	lo-	2dd\	lo-
=109	=109	=109	=109	=109	=109	=109	=109
2C/	-cu-	2e\	-cu-	2E/	-cu-	2cc\	-cu-
2D\	-tus	2d\	-tus	2F/	-tus	2a/	-tus
1GG	est	2B-\	est	1G	est	1b-	est
.	.	2G/	per	.	.	.	.
=110	=110	=110	=110	=110	=110	=110	=110
0r	.	2A/	pro-	2F/	per	2a/	per
.	.	2G/	.	2.G/	pro-	2.b-\	pro-
.	.	2B-\	-phe-	.	.	.	.
.	.	.	.	4F/	.	4a/	.
.	.	2G/	.	4G/	.	4b-\	.
.	.	.	.	4E/	.	4g/	.
=111	=111	=111	=111	=111	=111	=111	=111
1r	.	1A	.	4F/	-phe-	1cc	-phe-
.	.	.	.	4G/	.	.	.
.	.	.	.	4A/	.	.	.
.	.	.	.	4F/	.	.	.
2r	.	3G/V	-tas,	1G	-tas.	1b-	-tas.
.	.	3B-\	per	.	.	.	.
2G\	per	.	.	.	.	.	.
.	.	3G/Z	pro-	.	.	.	.
=112	=112	=112	=112	=112	=112	=112	=112
2F\	pro-	2A/	-phe-	0r	.	0r	.
2.G\	-phe-	2G/	.	.	.	.	.
.	.	2B-\	.	.	.	.	.
4F\	.	.	.	.	.	.	.
4G\	.	2G/	.	.	.	.	.
4E\	.	.	.	.	.	.	.
=113	=113	=113	=113	=113	=113	=113	=113
4F\	.	1A	.	1r	.	2r	.
4G\	.	.	.	.	.	.	.
4A\	.	.	.	.	.	2a/	Et
4F\	.	.	.	.	.	.	.
1G	-tas.	1G	-tas.	2r	.	2b-\	u-
.	.	.	.	2g\	Et	2b-\	-nam
=114	=114	=114	=114	=114	=114	=114	=114
0r	.	0r	.	2g\	u-	1b-	sanc-
.	.	.	.	2g\	-nam	.	.
.	.	.	.	2e\	sanc-	1cc	-tam
.	.	.	.	[2f\	-tam	.	.
=115	=115	=115	=115	=115	=115	=115	=115
0r	.	0r	.	2f\]	.	1dd	ca-
.	.	.	.	2d\	ca-	.	.
.	.	.	.	1e	-tho-	2cc\	-tho-
.	.	.	.	.	.	2b-\	-li-
=116	=116	=116	=116	=116	=116	=116	=116
0r	.	0r	.	1f	-li-	1a	-cam
.	.	.	.	1g	-cam	2r	.
.	.	.	.	.	.	2b-\	et
=117	=117	=117	=117	=117	=117	=117	=117
0r	.	0r	.	2e\	et	4cc\	a-
.	.	.	.	.	.	4b-\	-pos-
.	.	.	.	4f\	a-	4a/	-to-
.	.	.	.	4e\	-pos-	4g/	-li-
.	.	.	.	4d\	-to-	2a/	-cam
.	.	.	.	4c\	-li-	.	.
.	.	.	.	2d\	-cam	[2b-\	ec-
=118	=118	=118	=118	=118	=118	=118	=118
0r	.	0r	.	2B-\	ec-	4b-\]	.
.	.	.	.	.	.	4a/	.
.	.	.	.	2c\	-cle-	1g	-cle-
.	.	.	.	1A	-si-	.	.
.	.	.	.	.	.	2f#i/	-si-
=119	=119	=119	=119	=119	=119	=119	=119
*	*	*M3/1	*	*M3/1	*	*M3/1	*
*	*	*met(3)	*	*met(3)	*	*met(3)	*
0r	.	3%4B-	Con-	3%4G	-am.	3%4g	-am.
.	.	[3%2G	-fi-	3%2r	.	3%2r	.
=120	=120	=120	=120	=120	=120	=120	=120
*M3/1	*	*	*	*	*	*	*
*met(3)	*	*	*	*	*	*	*
!!primary-mensuration: met(3)
0C	Con-	1G]	.	0c	Con-	0e	Con-
.	.	0A	-te-	.	.	.	.
1D	-fi-	.	.	1A	-fi-	1f	-fi-
=121	=121	=121	=121	=121	=121	=121	=121
1GG	-te-	0G	-or	1B-	-te-	0g	-te-
0C	-or	.	.	0c	-or	.	.
.	.	1r	.	.	.	1g	-or
=122	=122	=122	=122	=122	=122	=122	=122
0C	u-	0c	u-	0e	u-	0g	u-
1D	-num	1A	-num	1f	-num	1a	-num
=123	=123	=123	=123	=123	=123	=123	=123
1G	bap-	1B-	bap-	1e	bap-	1g	bap-
0F	-tis-	0A	-tis-	0f	-tis-	1.a	-tis-
.	.	.	.	.	.	2f/	.
=124	=124	=124	=124	=124	=124	=124	=124
0BB-	-ma	0B-	-ma	1d	-ma	0f	-ma
.	.	.	.	1r	.	.	.
1E-	in	1G	in	1c	in	1g	in
=125	=125	=125	=125	=125	=125	=125	=125
1D	re-	1A	re-	1d	re-	1f	re-
1E-i	-mis-	1G	-mis-	1B-	-mis-	0g	-mis-
1C	-si-	1c	-si-	1e-	-si-	.	.
=126	=126	=126	=126	=126	=126	=126	=126
1D	-o-	1A	-o-	1.d	-o-	1f	-si-
0GG	.	0B-	-nem	.	.	1.g	-o-
.	.	.	.	2c\	.	.	.
.	.	.	.	2d\	.	.	.
.	.	.	.	2e\	.	2f/	.
=127	=127	=127	=127	=127	=127	=127	=127
0D	-nem	0A	.	0f	-nem	0a	-nem
1BB-	pec-	1B-	pec-	1d	pec-	1g	pec-
=128	=128	=128	=128	=128	=128	=128	=128
1E-i	-ca-	1G	-ca-	1c	-ca-	1g	-ca-
0D	-to-	0A	-to-	0d	-to-	1.f#i	-to-
.	.	.	.	.	.	2e/	.
=129	=129	=129	=129	=129	=129	=129	=129
*M2/1	*	*M2/1	*	*M2/1	*	*M2/1	*
*met(C|)	*	*met(C|)	*	*met(C|)	*	*met(C|)	*
0GG	-rum.	1G	-rum.	1B-	-rum.	0g	-rum.
.	.	1B-	Et	2G/	Et	.	.
.	.	.	.	[2B-\	ex-	.	.
=130	=130	=130	=130	=130	=130	=130	=130
0r	.	1G	ex-	4B-\]	.	0r	.
.	.	.	.	4A/	.	.	.
.	.	.	.	1G	-spec-	.	.
.	.	1A	-spec-	.	.	.	.
.	.	.	.	2F#i/	.	.	.
=131	=131	=131	=131	=131	=131	=131	=131
1B-	Et	0G	-to	1G	-to,	1dd	Et
1G	ex-	.	.	1g	et	1b-	ex-
=132	=132	=132	=132	=132	=132	=132	=132
1A	-spec-	1r	.	1e	ex-	1cc	-spec-
1D	-to	2r	.	1f	-spec-	1a	-to
.	.	[2f\	re-	.	.	.	.
=133	=133	=133	=133	=133	=133	=133	=133
2r	.	2f\]	.	2d\	-to	2r	.
1G	re-	2d\	-sur-	1B-	re-	1b-	re-
.	.	2e\	-rec-	.	.	.	.
2G\	-sur-	2d\	-ti-	2B-\	-sur-	2b-\	-sur-
=134	=134	=134	=134	=134	=134	=134	=134
2F\	-rec-	2f\	-o-	2c\	-rec-	2a/	-rec-
2B-\	-ti-	2d\	.	2d\	-ti-	2b-\	-ti-
1A	-o-	1e	.	2.c\	-o-	1cc	-o-
.	.	.	.	4A/	.	.	.
=135	=135	=135	=135	=135	=135	=135	=135
1F	-nem	1d	-nem	2A/	-nem	2dd\	-nem
.	.	.	.	2f\	mor-	2a/	mor-
2.G\	mor-	2r	.	2e\	-tu-	2.b-\	.
.	.	[2B-\	mor-	[2d\	-o-	.	.
4F\	.	.	.	.	.	4a/	.
=136	=136	=136	=136	=136	=136	=136	=136
2D\	.	2B-\]	.	2d\]	.	2f/	-tu-
2E-i\	-tu-	2G/	-tu-	2c\	.	1g	-o-
1D	-o-	1A	-o-	1d	.	.	.
.	.	.	.	.	.	2f#i/	.
=137	=137	=137	=137	=137	=137	=137	=137
0GG	-rum.	0G	-rum.	1.B-	.	0g	-rum.
.	.	.	.	2G/	.	.	.
=138	=138	=138	=138	=138	=138	=138	=138
2r	.	0B-	Et	0G	-rum.	1r	.
2G\	Et	.	.	.	.	.	.
2.G\	vi-	.	.	.	.	1g	Et
4E\	.	.	.	.	.	.	.
=139	=139	=139	=139	=139	=139	=139	=139
1E	-tam	0G	vi-	1r	.	1g	vi-
[1C	.	.	.	2r	.	[1e	-tam
.	.	.	.	2c\	Et	.	.
=140	=140	=140	=140	=140	=140	=140	=140
1C]	.	0A	-tam	1c	vi-	1e]	.
1D	ven-	.	.	1A	-tam	1f	ven-
=141	=141	=141	=141	=141	=141	=141	=141
1GG	-tu-	0G	ven-	3%2B-V	ven-	1g	-tu-
.	.	.	.	3%2G	.	.	.
1C	-ri	.	.	.	.	1e	-ri
.	.	.	.	3%2cZ	.	.	.
=142	=142	=142	=142	=142	=142	=142	=142
1D	se-	1F	-tu-	3%2AV	-tu-	2r	.
.	.	.	.	.	.	2.f/	se-
.	.	.	.	3%2F	.	.	.
1BB-	.	1D	.	.	.	.	.
.	.	.	.	.	.	4e/	.
.	.	.	.	3%2GZ	.	.	.
.	.	.	.	.	.	[2d/	.
=143	=143	=143	=143	=143	=143	=143	=143
0AA	-cu-	0E	.	0A	-ri	2d/]	.
.	.	.	.	.	.	4c#i/	.
.	.	.	.	.	.	4Bni/	.
.	.	.	.	.	.	4c#i/	.
.	.	.	.	.	.	4d/	.
.	.	.	.	.	.	4e/	-cu-
.	.	.	.	.	.	4c#i/	.
=144	=144	=144	=144	=144	=144	=144	=144
0D	-li.	1D	-ri	1.F	se-	0d	-li,
.	.	2r	.	.	.	.	.
.	.	[2f\	se-	4E/	-cu-	.	.
.	.	.	.	4D/	.	.	.
=145	=145	=145	=145	=145	=145	=145	=145
0r	.	2f\]	.	1d	-li,	2r	.
.	.	2d\	.	.	.	2f/	se-
.	.	2e\	.	2r	.	2g/	.
.	.	2d\	.	2G/	se-	[2b-\	.
=146	=146	=146	=146	=146	=146	=146	=146
0r	.	2c\	.	2A/	.	4b-\]	.
.	.	.	.	.	.	4a/	.
.	.	2A/	.	2F/	.	1a	.
.	.	1B-	-cu-	1G	.	.	.
.	.	.	.	.	.	2g/	-cu-
=147	=147	=147	=147	=147	=147	=147	=147
2r	.	0A	-li.	2.D/	.	[0a	-li.
2D\	A-	.	.	.	.	.	.
.	.	.	.	4F/	.	.	.
2C/	.	.	.	2E/	-cu-	.	.
2D\	.	.	.	2D/	.	.	.
=148	=148	=148	=148	=148	=148	=148	=148
2AA/	.	2r	.	1A	-li.	1a]	.
2.D\	.	1f	A-	.	.	.	.
.	.	.	.	2.F/	A-	2r	.
4C/	.	.	.	.	.	.	.
2BB-/	.	2d\	.	.	.	2dd\	A-
.	.	.	.	4G/	.	.	.
=149	=149	=149	=149	=149	=149	=149	=149
2AA/	.	2e\	.	1.A	.	2cc\	.
2.D\	.	2d\	.	.	.	2dd\	.
.	.	[1f	.	.	.	2a/	.
4C/	.	.	.	.	.	.	.
4D\	.	.	.	2F/	.	2dd\	.
4E\	.	.	.	.	.	.	.
=150	=150	=150	=150	=150	=150	=150	=150
2F\	.	2f\]	.	2A/	.	2cc\	.
2BB-/	.	2d\	.	2.G/	.	2dd\	.
2C/	.	2e\	.	.	.	2g/	.
.	.	.	.	4E/	.	.	.
2D\	.	2d\	.	2F/	.	[2dd\	.
=151	=151	=151	=151	=151	=151	=151	=151
2GG/	.	2B-\	.	3.G/V	.	4dd\]	.
.	.	.	.	.	.	4cc\	.
2G\	.	2G/	.	6A/	.	2b-\	.
.	.	.	.	3B-\Z	.	.	.
2F\	.	2A/	.	3c\V	.	2a/	.
.	.	.	.	3d\	.	.	.
[2B-\	.	2G/	.	.	.	[2dd\	.
.	.	.	.	3G/Z	.	.	.
=152	=152	=152	=152	=152	=152	=152	=152
4B-\]	.	1B-	.	1d	.	4dd\]	.
4A\	.	.	.	.	.	4cc\	.
2.G\	.	.	.	.	.	2.b-\	.
.	.	1G	.	2.B-\	.	.	.
4F\	.	.	.	.	.	4a/	.
2E\	.	.	.	.	.	2g/	.
.	.	.	.	4c\	.	.	.
=153	=153	=153	=153	=153	=153	=153	=153
2D\	.	2A/	.	2d\	.	2f/	.
2.d\	.	2G/	.	2B-\	.	2g/	.
.	.	[1B-	.	2d\	.	2d/	.
4c\	.	.	.	.	.	.	.
[2B-\	.	.	.	2G/	.	[2dd\	.
=154	=154	=154	=154	=154	=154	=154	=154
4B-\]	.	1B-]	.	1d	.	4dd\]	.
4A\	.	.	.	.	.	4cc\	.
2.G\	.	.	.	.	.	2.b-\	.
.	.	1G	.	2.B-\	.	.	.
4F\	.	.	.	.	.	4a/	.
2E\	.	.	.	.	.	2g/	.
.	.	.	.	4c\	.	.	.
=155	=155	=155	=155	=155	=155	=155	=155
2D\	.	0A	.	2d\	.	2f/	.
2C/	.	.	.	2e-i\	.	2.g/	.
1D	.	.	.	[1d	.	.	.
.	.	.	.	.	.	4f#i/	.
.	.	.	.	.	.	4f#i/	.
.	.	.	.	.	.	4e/	.
=156	=156	=156	=156	=156	=156	=156	=156
2BB-/	.	[0Gl	-men.	2d\]	.	[0g	-men.
2GG/	.	.	.	2B-\	.	.	.
2.C/	.	.	.	1e-i	.	.	.
4BB-/	.	.	.	.	.	.	.
=157	=157	=157	=157	=157	=157	=157	=157
0GGl	-men.	0G]	.	0dl	-men.	0gl	.
==	==	==	==	==	==	==	==
*-	*-	*-	*-	*-	*-	*-	*-
!!!rscale-alt: 1/4
!!!RDF**kern: l=long note in original notation
!!!RDF**kern: i=editorial accidental
!!!RDF**kern: V=start of tuplet marker
!!!RDF**kern: Z=end of tuplet marker
!!!ENC: Jesse Rodin; Victoria Chang 2011/09/06
!!!END: 2011/09/06/
!!!EED: Jesse Rodin
!!!EEV: 2018/01/19/
!!attribution-level@Jos: 1 (secure, core group [checkmark])
!!!ONB: Translated from MusicXML and edited on 2018/01/19/ by Craig Sapp
!!muse2ps: T^@{OPR}^u^@{ONM}{. }@{OTL}^C^@{COM}\n@{SCT}^i2I150v90,90,90,120c122z18l2700t130
